X: 21646
T: Killeigh, The
R: hornpipe
M: 4/4
K: Gmajor
(3DEF|:G2 GF G2 Bd|g2 eg dGBd|eGBc B3B|(3ABA (3GFE D2 (3DEF|
G2 GF GABd|g2 eg dGBd|eGBc BAGF|1 G2 GF GDEF:|2 G2 FA G2 Bc||
dGBd eGBd|g2 bg d3 B|c3 d B3 c|(3ABA (3GFE D2 Bc|
dGBd eGBd|g2 bg d2 ED|EGBc BAGF|GBAF G2 Bc|
dfgf e3f|gabg d3 B|c3 d B3 c|(3ABA (3GFE D2 Bc|
dGBd eGBd|g2 bg d2 ED|EGBc BAGF|GBAF G3||

